!!!SOCIAL_FUNCTION:	bird dance songs
!!!PDT:	1956
!!!OTL: No_118_Hinata_Dance_Song_(n).krn
!!!LANG: Non-Tone
!!!LING_GROUP: Muskogean
!!!REG: Florida
**kern
*staff1
=1-
=
*clefF4
*k[]
*M3/4
8c\L
8G\J
(8.c\L
16G\Jk)
4G\
=2||
*M2/4
8c\L
8A\J
(16.G\LL
32D\JK)
8D\J
=3||
*M3/4
8F\L
(16F\L
16D\JJ)
4D\
8D\
8r
=4
8F\L
(16F\L
16D\JJ)
4C/
4C/
=5||
*M2/4
8G\L
8A\J
8G\L
8D\J
=6||
*M3/4
8F\L
(16F\L
16D\JJ)
4D\
8D\
8r
=7
8F\L
16F\L
16C\JJ
4C/
4C/
==:|!
*-
